flaticon/weather/icicle.svg

<svg xmlns="http://www.w3.org/2000/svg" width="32" height="32" viewBox="0 0 24 24">
    <path d="M 21.632812 4.851562 L 21.632812 4.847656 L 21.507812 4.683594 C 21.472656 4.636719 21.429688 4.589844 21.390625 4.542969 C 21.277344 4.402344 21.160156 4.261719 21.039062 4.121094 C 20.976562 4.050781 20.914062 3.976562 20.847656 3.902344 C 20.695312 3.738281 20.539062 3.578125 20.378906 3.421875 C 20.34375 3.386719 20.308594 3.347656 20.269531 3.3125 C 20.261719 3.304688 20.253906 3.300781 20.246094 3.296875 C 18.09375 1.253906 15.191406 0 12 0 C 8.808594 0 5.90625 1.253906 3.753906 3.296875 C 3.746094 3.300781 3.734375 3.304688 3.730469 3.308594 C 3.671875 3.363281 3.617188 3.421875 3.5625 3.476562 C 3.535156 3.503906 3.503906 3.53125 3.476562 3.5625 C 3.371094 3.667969 3.265625 3.78125 3.164062 3.890625 C 3.136719 3.921875 3.105469 3.953125 3.078125 3.984375 C 2.976562 4.097656 2.878906 4.210938 2.78125 4.328125 C 2.753906 4.359375 2.730469 4.390625 2.703125 4.421875 C 2.605469 4.539062 2.511719 4.660156 2.421875 4.777344 C 2.398438 4.8125 2.371094 4.847656 2.347656 4.878906 C 2.296875 4.945312 2.246094 5.011719 2.199219 5.078125 L 2.085938 5.238281 L 2.085938 5.246094 C 0.773438 7.171875 0 9.496094 0 12 C 0 18.617188 5.382812 24 12 24 C 18.617188 24 24 18.617188 24 12 C 24 9.324219 23.121094 6.851562 21.632812 4.851562 Z M 19.828125 4 C 19.921875 4.089844 20.011719 4.183594 20.101562 4.28125 C 20.183594 4.367188 20.265625 4.449219 20.34375 4.539062 C 20.457031 4.664062 20.566406 4.792969 20.671875 4.921875 C 20.699219 4.953125 20.722656 4.984375 20.746094 5.015625 L 19.957031 7.578125 L 18.804688 4.574219 C 18.683594 4.261719 18.382812 4.074219 18.042969 4.101562 C 17.710938 4.128906 17.445312 4.371094 17.378906 4.699219 L 16 11.882812 L 14.8125 5.707031 C 14.742188 5.339844 14.445312 5.089844 14.054688 5.105469 C 13.679688 5.121094 13.390625 5.390625 13.347656 5.753906 L 11.964844 15.738281 L 10.28125 5.589844 C 10.230469 5.222656 9.9375 4.960938 9.566406 4.949219 C 9.195312 4.941406 8.886719 5.1875 8.816406 5.554688 L 7.601562 11.882812 L 6.21875 4.699219 C 6.15625 4.371094 5.890625 4.128906 5.554688 4.101562 C 5.222656 4.074219 4.917969 4.261719 4.796875 4.574219 L 3.640625 7.578125 L 2.96875 5.386719 C 2.980469 5.371094 2.988281 5.355469 3 5.339844 C 3.164062 5.121094 3.335938 4.910156 3.515625 4.703125 C 3.558594 4.648438 3.605469 4.597656 3.652344 4.542969 C 3.824219 4.347656 4.007812 4.160156 4.195312 3.976562 C 6.214844 2.011719 8.96875 0.800781 12 0.800781 C 15.042969 0.800781 17.808594 2.023438 19.828125 4 Z M 12 23.199219 C 5.824219 23.199219 0.800781 18.175781 0.800781 12 C 0.800781 9.898438 1.382812 7.929688 2.394531 6.246094 L 3.558594 10.023438 L 5.472656 5.050781 L 7.601562 16.117188 L 9.542969 6.019531 L 12.035156 21.058594 L 14.09375 6.203125 L 16 16.117188 L 18.128906 5.050781 L 20.042969 10.023438 L 21.335938 5.820312 C 22.511719 7.59375 23.199219 9.71875 23.199219 12 C 23.199219 18.175781 18.175781 23.199219 12 23.199219 Z M 12 23.199219"/>
</svg>

<svg xmlns="http://www.w3.org/2000/svg" width="32" height="32" viewBox="0 0 24 24">
    <path d="M21.633 4.852v-.004l-.125-.164c-.035-.047-.078-.094-.117-.141-.114-.14-.23-.281-.352-.422l-.191-.219a13.597 13.597 0 0 0-.47-.48c-.034-.035-.07-.074-.108-.11a.082.082 0 0 0-.024-.015A11.941 11.941 0 0 0 12 0a11.941 11.941 0 0 0-8.246 3.297c-.008.004-.02.008-.024.012-.058.054-.113.113-.167.168-.028.027-.06.054-.086.086-.106.105-.211.218-.313.328-.027.03-.059.062-.086.093-.101.114-.2.227-.297.344-.027.031-.05.063-.078.094-.098.117-.191.238-.281.355-.024.035-.05.07-.074.102-.051.066-.102.133-.149.2l-.113.16v.007A11.955 11.955 0 0 0 0 12c0 6.617 5.383 12 12 12s12-5.383 12-12c0-2.676-.879-5.148-2.367-7.148zM19.828 4c.094.09.184.184.274.281.082.086.164.168.242.258.113.125.222.254.328.383.027.031.05.062.074.094l-.789 2.562-1.152-3.004a.739.739 0 0 0-.762-.472.738.738 0 0 0-.664.597L16 11.883l-1.188-6.176a.719.719 0 0 0-.757-.602.728.728 0 0 0-.707.649l-1.383 9.984L10.28 5.59a.732.732 0 0 0-.715-.64.734.734 0 0 0-.75.605l-1.214 6.328-1.383-7.184a.73.73 0 0 0-.664-.597.74.74 0 0 0-.758.472L3.64 7.578l-.672-2.191L3 5.34c.164-.219.336-.43.516-.637.043-.055.09-.105.136-.16A11.16 11.16 0 0 1 12 .801C15.043.8 17.809 2.023 19.828 4zM12 23.2C5.824 23.2.8 18.175.8 12c0-2.102.583-4.07 1.595-5.754l1.164 3.777 1.914-4.972 2.129 11.066L9.543 6.02l2.492 15.039 2.059-14.856L16 16.117l2.129-11.066 1.914 4.972 1.293-4.203A11.15 11.15 0 0 1 23.199 12c0 6.176-5.023 11.2-11.199 11.2zm0 0"/>
</svg>
